X:1
T:Out in the Sunshine
T:John Robson Sweney
T:Out in the Sunshine
T:Public Domain
T:Public Domain
C:John Robson Sweney
Z:Public Domain
%%score ( 1 2 ) ( 3 4 )
L:1/8
M:6/8
K:Eb
V:1 treble 
V:2 treble 
V:3 bass 
V:4 bass 
V:1
 [GB][GB][GB] [GB][Ac][GB] | [GB][FA][=EG] [FA]3 | [FA][FA][FA] [FA][GB][FA] | [FA][EG][DF] [EG]3 | %4
w: 1.~Out in the sun- shine of|in- fi- nite love,|Breath- ing the frag- rance of|E- den a- bove;|
w: 2.~Out in the sun- shine, though|sha- dows may fall,|Yet will I thank Thee and|praise Thee for all;|
w: 3.~Out in the sun- shine sweet|mu- sic I hear,|Ten- der- ly waft- ing a|song on my ear;|
w: 4.~Out in the sun- shine by|faith I can see,|Man- sions in glo- ry pre-|par- ing for me;|
 [GB][GB][GB] [GB][Ge][Bd] | [Bd][Ac][A=B] [Ac]3 | [FA][EG][FA] [^F=A][GB][Ge] | [Fd][DF][DG] E3 || %8
w: I am so hap- py, O|Sav- ior di- vine,|Liv- ing or dy- ing, to|know I am Thine.|
w: Nev- er, no, nev- er my|heart shall re- pine,|Liv- ing or dy- ing, I|know I am Thine.|
w: Oh, what a bless- èd as-|sur- ance is mine,|Liv- ing or dy- ing, I|know I am Thine.|
w: O my Re- deem- er, what|rap- ture is mine,|Liv- ing or dy- ing, I|know I am Thine.|
"^Refrain" [EG]3- [EG][Ac][GB] | [FA]3- [FA]3 | [FA]3- [FA][Bd][Ac] | [GB]6 | [Ge]3- [Ge][EG][FA] | %13
w: |||||
w: I * am Thine,|Lord, *|I * am Thine,|Liv-|ing * or dy-|
w: |||||
w: |||||
 [^F=A]3 [GB]2 [Ge] | [Fd]3- [Fd][DF][DG] | E6 |] %16
w: |||
w: ing, I know|I * am Thine.||
w: |||
w: |||
V:2
 x6 | x6 | x6 | x6 | x6 | x6 | x6 | x3 E3 || x6 | x6 | x6 | x6 | x6 | x6 | x6 | E6 |] %16
w: ||||||||||||||||
w: |||||||Yes,|||||||||
V:3
 [E,E][E,E][E,E] [E,E][E,E][E,E] | [B,E][B,D][B,^C] [B,D]3 | %2
w: ~ ~ ~ ~ ~ ~|~ ~ ~ ~|
 [B,,B,D][B,,B,D][B,,B,D] [B,,B,D][B,,B,D][B,,B,D] | [E,E][E,B,][E,B,] [E,B,]3 | %4
w: ~ ~ ~ ~ ~ ~|~ ~ ~ ~|
 [E,E][E,E][E,E] [E,E][E,B,][G,E] | [A,E][A,E][A,D] [A,E]3 | B,B,B, [E,E][E,E][E,B,] | %7
w: ~ ~ ~ ~ ~ ~|~ ~ ~ ~|~ ~ ~ ~ ~ ~|
 [B,,B,][B,,B,][B,,B,] [E,G,]3 || [E,B,][E,B,][E,B,] [E,B,] z2 | [B,D][B,D][B,D] [B,D]3 | %10
w: ~ Yes, I am|Thine, Lord I am|Thine, Yes, I am|
 [B,D][B,D][B,D] [B,D] z2 | [E,E][E,E][E,E] [E,E]3 | [E,B,][E,B,][E,B,] [E,B,][E,B,][E,B,] | %13
w: Thine, Lord I am|Thine, Liv- ing or|dy- ing, I know I am|
 [E,C][E,C][E,C] [E,E]2 [E,B,] | B,2 [B,,B,] [B,,B,][B,,A,][B,,B,] | [E,B,]6 |] %16
w: Thine, I know, I know|I am Thine. * *||
V:4
 x6 | x6 | x6 | x6 | x6 | x6 | B,B,B, x3 | x6 || x6 | x6 | x6 | x6 | x6 | x6 | B,2 x4 | x6 |] %16
w: ||||||~ ~ ~||||||||||

